X: 20035
T: HANOVERIAN WALTZ
%R: waltz
B: W. Hamilton "Universal Tune-Book" Vol. 2 Glasgow 1846 p.3 #5
S: http://s3-eu-west-1.amazonaws.com/itma.dl.printmaterial/book_pdfs/hamiltonvol2web.pdf
Z: 2016 John Chambers <jc:trillian.mit.edu>
M: 3/4
L: 1/8
K: F
% - - - - - - - - - - - - - - - - - - - - - - - - -
(Ac) |\
(f2 e2) Bd | (d2 c2) Ac | (c2 B2) GB |(d2 c2) Ac |\
(f2 e2) Bd | (d2 c2) Ac | (c2 B2) (GE) | F4 :|\
|: A2 |\
(3(BcB) G2 c2 | (d2 c2) A2 | (3(BcB) G2 B2 | (d2 c2) Ac |\
(f2 e2) Bd | (d2 c2) Ac | cBABGE | F4 :|
|: c2 |\
c2 (a2 g2) | f2 A2 c2 | B2 G2 e2 | (f2 a2) c2 |\
c2 (a2 g2) | f2 A2 c2 | B2 G2 e2 | f4 :|\
|: c2 |\
B2 G2 e2 | (f2 a2) c2 | B2 G2 e2 | (f2 a2) c2 |\
c2 (a2 g2) | f2 A2 c2 | B2 G2 e2 | f4 :|
% - - - - - - - - - - - - - - - - - - - - - - - - -
